X:589
T:Hamilton Rant, The
C:Joe Buchanan's Scottish Tome - Page 162.2
I:162 2
Z:Carl Allison
R:Reel
L:1/8
M:4/4
K:D
FE | "D"DFAd BdAF | "D"DFAd B2 Ad | "A7"cdef gfed | "A7"edcB AGFE |
"D"DFAd BdAF | "D"DFAd B2 Ad | "A7"cAce gece | "D"d2 f2 d2 :|
fg | "D"a2 ab afdf | "D"abaf "Bm"dfed | "A7"cAce afed | "A7"c2 A2 A2 fg |
"D"a2 ab afdf | "D"abaf "Bm"dfed | "A"cAce "A7"aece | "D"d2 f2 d2 :|
